!!!SOCIAL_FUNCTION:	klokali songs
!!!PDT:	1939
!!!OTL: No_55_Song_With_Impersonation_of_Wolves.krn
!!!LANG: Non-Tone
!!!LING_GROUP: Wakashan
!!!REG: Pacific Northwest
**kern	**kern
*staff2	*staff1
=1-	=1-
*clefF4	*clefF4
*k[]	*k[]
*M2/4	*M2/4
16GG/LL	4.d\
16GG/	.
16GG/	.
16GG/JJ	.
16GG/LL	.
16GG/	.
16GG/	8d\
16GG/JJ	.
=2!|:	=2!|:
16GG/LL	16e-\LK
16GG/	[8.d\J
16GG/	.
16GG/JJ	.
16GG/LL	4d\]
16GG/	.
16GG/	.
16GG/JJ	.
=3	=3
16GG/LL	16d\LK
16GG/	8.c\J
16GG/	.
16GG/JJ	.
16GG/LL	8r
16GG/	.
16GG/	8d\
16GG/JJ	.
=4	=4
16GG/LL	16d\LK
16GG/	[8.c\J
16GG/	.
16GG/JJ	.
16GG/LL	4c\_
16GG/	.
16GG/	.
16GG/JJ	.
=5	=5
16GG/LL	4c\]
16GG/	.
16GG/	.
16GG/JJ	.
16GG/LL	16c\LK
16GG/	8B\
16GG/	.
16GG/JJ	16c\Jk
=6	=6
16GG/LL	16c\LL
16GG/	16B\JJ
16GG/	8r
16GG/JJ	.
16GG/LL	4r
16GG/	.
16GG/	.
16GG/JJ	.
=7	=7
16GG/LL	8e-\L
16GG/	.
16GG/	8d\J
16GG/JJ	.
16GG/LL	16e-\LL
16GG/	16d\J
16GG/	[8d\J
16GG/JJ	.
=8||	=8||
*M3/4	*M3/4
16GG/LL	4.d\]
16GG/	.
16GG/	.
16GG/JJ	.
16GG/LL	.
16GG/	.
16GG/	8c\
16GG/JJ	.
16GG/LL	8r
16GG/	.
16GG/	8d\
16GG/JJ	.
=9||	=9||
*M2/4	*M2/4
16GG/LL	16d\LK
16GG/	[8.c\J
16GG/	.
16GG/JJ	.
16GG/LL	4c\_
16GG/	.
16GG/	.
16GG/JJ	.
=10||	=10||
*M3/4	*M3/4
16GG/LL	8c\L]
16GG/	.
16GG/	16c\L
16GG/JJ	16B\JJ
16GG/LL	16c\LL
16GG/	16B\JJ
16GG/	8r
16GG/JJ	.
16GG/LL	16d\LK
16GG/	8c\
16GG/	.
16GG/JJ	16d\Jk
=11	=11
16GG/LL	16d\LK
16GG/	[8.c\J
16GG/	.
16GG/JJ	.
16GG/LL	4c\]
16GG/	.
16GG/	.
16GG/JJ	.
16GG/LL	16c\LL
16GG/	32B\JJk
.	32r
16GG/	8c\
16GG/JJ	.
=12	=12
16GG/LL	2c\
16GG/	.
16GG/	.
16GG/JJ	.
16GG/LL	.
16GG/	.
16GG/	.
16GG/JJ	.
16GG/LL	16c\LK
16GG/	8B\
16GG/	.
16GG/JJ	16c\Jk
=13	=13
16GG/LL	16c\LK
16GG/	8.B\J
16GG/	.
16GG/JJ	.
16GG/LL	4r
16GG/	.
16GG/	.
16GG/JJ	.
16GG/LL	16e-\LL
16GG/	16d\JJ
16GG/	16r
16GG/JJ	16e-\
=14||	=14||
*M2/4	*M2/4
16GG/LL	16e-\LK
16GG/	[8.d\J
16GG/	.
16GG/JJ	.
16GG/LL	4d\]
16GG/	.
16GG/	.
16GG/JJ	.
=15	=15
16GG/LL	2r
16GG/	.
16GG/	.
16GG/JJ	.
16GG/LL	.
16GG/	.
16GG/	.
16GG/JJ	.
=16	=16
16GG/LL	2d\
16GG/	.
16GG/	.
16GG/JJ	.
16GG/LL	.
16GG/	.
16GG/	.
16GG/JJ	.
=17	=17
16GG/LL	2r
16GG/	.
16GG/	.
16GG/JJ	.
16GG/LL	.
16GG/	.
16GG/	.
16GG/JJ	.
=18	=18
16GG/LL	4d\
16GG/	.
16GG/	.
16GG/JJ	.
16GG/LL	4d\
16GG/	.
16GG/	.
16GG/JJ	.
=19	=19
16GG/LL	4r
16GG/	.
16GG/	.
16GG/JJ	.
16GG/LL	16e-\LK
16GG/	8d\
16GG/	.
16GG/JJ	16e-\Jk
==:|!	==:|!
*-	*-
